report_00007_2020-12-11T15:55:29.892Z/network-rtt/comparison/sorted/6_vs_7.svg

<svg width="640" height="500" xmlns="http://www.w3.org/2000/svg" xmlns:xlink="http://www.w3.org/1999/xlink"><path fill="#fff" d="M0 0h640v500H0z"/><defs><path id="d" stroke-width=".222" stroke="currentColor" d="M-1-1h2v2h-2z"/><path id="b" stroke-width=".222" stroke="currentColor" d="M0-1.33l-1.33 2h2.66z"/><path id="f" stroke-width=".222" stroke="currentColor" d="M0 1.33L1.265.411.782-1.067l-1.564-.009-.483 1.487z"/><use xlink:href="#b" id="c" stroke="currentColor" transform="rotate(180)"/><use xlink:href="#d" id="e" stroke="currentColor" transform="rotate(45)"/><circle id="a" stroke-width=".222" stroke="currentColor" cx="0" cy="0" r="1"/></defs><g fill="none" color="#000" stroke="currentColor"><path stroke="#000" d="M62.2 399.9h9m543.8 0h-9"/><text transform="translate(53.9 403.8)" stroke="none" fill="#000" font-family="Arial" font-size="12" text-anchor="end"><tspan>0.05</tspan></text></g><g fill="none" color="#000" stroke="currentColor"><path stroke="#000" d="M62.2 317.2h9m543.8 0h-9"/><text transform="translate(53.9 321.1)" stroke="none" fill="#000" font-family="Arial" font-size="12" text-anchor="end"><tspan>0.1</tspan></text></g><g fill="none" color="#000" stroke="currentColor"><path stroke="#000" d="M62.2 234.4h9m543.8 0h-9"/><text transform="translate(53.9 238.3)" stroke="none" fill="#000" font-family="Arial" font-size="12" text-anchor="end"><tspan>0.15</tspan></text></g><g fill="none" color="#000" stroke="currentColor"><path stroke="#000" d="M62.2 151.6h9m543.8 0h-9"/><text transform="translate(53.9 155.5)" stroke="none" fill="#000" font-family="Arial" font-size="12" text-anchor="end"><tspan>0.2</tspan></text></g><g fill="none" color="#000" stroke="currentColor"><path stroke="#000" d="M62.2 68.9h9m543.8 0h-9"/><text transform="translate(53.9 72.8)" stroke="none" fill="#000" font-family="Arial" font-size="12" text-anchor="end"><tspan>0.25</tspan></text></g><g fill="none" color="#000" stroke="currentColor"><path stroke="#000" d="M62.2 428v-9m0-400.9v9"/><text transform="translate(62.2 449.9)" stroke="none" fill="#000" font-family="Arial" font-size="12" text-anchor="middle"><tspan>0</tspan></text></g><g fill="none" color="#000" stroke="currentColor"><path stroke="#000" d="M118 428v-9m0-400.9v9"/><text transform="translate(118 449.9)" stroke="none" fill="#000" font-family="Arial" font-size="12" text-anchor="middle"><tspan>10</tspan></text></g><g fill="none" color="#000" stroke="currentColor"><path stroke="#000" d="M173.9 428v-9m0-400.9v9"/><text transform="translate(173.9 449.9)" stroke="none" fill="#000" font-family="Arial" font-size="12" text-anchor="middle"><tspan>20</tspan></text></g><g fill="none" color="#000" stroke="currentColor"><path stroke="#000" d="M229.7 428v-9m0-400.9v9"/><text transform="translate(229.7 449.9)" stroke="none" fill="#000" font-family="Arial" font-size="12" text-anchor="middle"><tspan>30</tspan></text></g><g fill="none" color="#000" stroke="currentColor"><path stroke="#000" d="M285.6 428v-9m0-400.9v9"/><text transform="translate(285.6 449.9)" stroke="none" fill="#000" font-family="Arial" font-size="12" text-anchor="middle"><tspan>40</tspan></text></g><g fill="none" color="#000" stroke="currentColor"><path stroke="#000" d="M341.4 428v-9m0-400.9v9"/><text transform="translate(341.4 449.9)" stroke="none" fill="#000" font-family="Arial" font-size="12" text-anchor="middle"><tspan>50</tspan></text></g><g fill="none" color="#000" stroke="currentColor"><path stroke="#000" d="M397.2 428v-9m0-400.9v9"/><text transform="translate(397.2 449.9)" stroke="none" fill="#000" font-family="Arial" font-size="12" text-anchor="middle"><tspan>60</tspan></text></g><g fill="none" color="#000" stroke="currentColor"><path stroke="#000" d="M453.1 428v-9m0-400.9v9"/><text transform="translate(453.1 449.9)" stroke="none" fill="#000" font-family="Arial" font-size="12" text-anchor="middle"><tspan>70</tspan></text></g><g fill="none" color="#000" stroke="currentColor"><path stroke="#000" d="M508.9 428v-9m0-400.9v9"/><text transform="translate(508.9 449.9)" stroke="none" fill="#000" font-family="Arial" font-size="12" text-anchor="middle"><tspan>80</tspan></text></g><g fill="none" color="#000" stroke="currentColor"><path stroke="#000" d="M564.7 428v-9m0-400.9v9"/><text transform="translate(564.7 449.9)" stroke="none" fill="#000" font-family="Arial" font-size="12" text-anchor="middle"><tspan>90</tspan></text></g><path stroke="#000" d="M62.2 18.1V428H615V18.1H62.2z" fill="none" color="#000"/><text transform="translate(437.8 467.9)" stroke="none" fill="#000" font-family="Arial" font-size="12" text-anchor="end" color="#000"><tspan>pages+cached+noexternal+nofonts</tspan></text><path stroke="#9400D3" d="M446.1 464h42.2M62.2 405.7l5.6-.8 5.6-2 5.6-.8 5.5-1.7 5.6-.5 5.6-1.3 5.6-.2 5.6-.1 5.6-.2 5.5-.8 5.6-.4 5.6-.8 5.6-.2 5.6-.3 5.6-.1 5.5-2 5.6-.5 5.6-1 5.6-.2h5.6l5.6-.2 5.5-.1 5.6-.2 5.6-1.8 5.6-.8h5.6l5.6-.9 5.5-1.5h5.6l5.6-2.9 5.6-1.5 5.6-.8h5.6l5.6-.2 5.5-.2h5.6l5.6-1.3 5.6-.5 5.6-.5 5.6-.7 5.5-.5 5.6-.1 5.6-.2 5.6-.3 5.6-.3 5.6-.7 5.5-1h5.6l5.6-.5 5.6-.5 5.6-.3 5.6-.2h5.5l5.6-.3 5.6-.2 5.6-.3 5.6-.2 5.6-.2 5.5-.1 5.6-.2h5.6l5.6-.6h5.6l5.6-.2 5.5-.7 5.6-.8h5.6l5.6-.2 5.6-1.1 5.6-.4 5.6-.1h5.5l5.6-.2 5.6-1.3h5.6l5.6-.3 5.6-.2 5.5-.2 5.6-.6 5.6-2.5 5.6-.2 5.6-.6h5.6l5.5-2.2 5.6-.3 5.6-3.3h5.6l5.6-1.9 5.6-1 5.5-1.3 5.6-.6 5.6-2.4 5.6-.1 5.6-1.3 5.6-3.7 5.5-1.1 5.6-2.2 5.6-23.3L615 294" fill="none" color="#000"/><text transform="translate(437.8 485.9)" stroke="none" fill="#000" font-family="Arial" font-size="12" text-anchor="end" color="#000"><tspan>pages+cached+noexternal+nosvg</tspan></text><path stroke="#009E73" d="M446.1 482h42.2M62.2 420.1l5.6-4.3 5.6-13.9 5.6-1.8 5.5-2 5.6-2.2 5.6-.6 5.6-1.8 5.6-1 5.6-.5 5.5-2.2 5.6-1.1 5.6-1.7 5.6-.3 5.6-.2 5.6-1.1 5.5-1.9 5.6-1.3 5.6-.5 5.6-.6 5.6-.5 5.6-.2 5.5-.2 5.6-.6 5.6-.4 5.6-.5 5.6-.3 5.6-.2 5.5-.1 5.6-.2h5.6l5.6-.3 5.6-.2 5.6-1.1h5.6l5.5-.4h5.6l5.6-.3 5.6-.8 5.6-.9 5.6-.5 5.5-1.9h5.6l5.6-.4 5.6-.1 5.6-.7h5.6l5.5-.2 5.6-1.1h5.6l5.6-.5 5.6-.4h5.6l5.5-.1 5.6-1 5.6-.3h5.6l5.6-1 5.6-.9 5.5-.8h5.6l5.6-.5 5.6-.2 5.6-.3 5.6-.2h11.1l5.6-1.9 5.6-.9 5.6-1 5.6-2.9 5.6-1.4 5.5-.8 5.6-1.2 5.6-.5 5.6-1.3 5.6-3 5.6-.5 5.5-2.8 5.6-1.8 5.6-.6 5.6-.2 5.6-1 5.6-1.2 5.5-2.4 5.6-1.7 5.6-3.3 5.6-.5 5.6-5.5 5.6-5.3 5.5-20.5 5.6-.8 5.6-4.7 5.6-53.3 5.6-35.2 5.6-98.3 5.5-36.8 5.6-8.9h5.6L615 26" fill="none" color="#000"/><g fill="none" color="#000" stroke="currentColor"><path stroke="#000" d="M62.2 18.1V428H615V18.1H62.2z"/></g></svg>

<?xml version="1.0" encoding="utf-8"  standalone="no"?>
<svg 
 width="640" height="500"
 viewBox="0 0 640 500"
 xmlns="http://www.w3.org/2000/svg"
 xmlns:xlink="http://www.w3.org/1999/xlink"
>

<title>Gnuplot</title>
<desc>Produced by GNUPLOT 5.4 patchlevel 0 </desc>

<g id="gnuplot_canvas">

<rect x="0" y="0" width="640" height="500" fill="#ffffff"/>
<defs>

	<circle id='gpDot' r='0.5' stroke-width='0.5' stroke='currentColor'/>
	<path id='gpPt0' stroke-width='0.222' stroke='currentColor' d='M-1,0 h2 M0,-1 v2'/>
	<path id='gpPt1' stroke-width='0.222' stroke='currentColor' d='M-1,-1 L1,1 M1,-1 L-1,1'/>
	<path id='gpPt2' stroke-width='0.222' stroke='currentColor' d='M-1,0 L1,0 M0,-1 L0,1 M-1,-1 L1,1 M-1,1 L1,-1'/>
	<rect id='gpPt3' stroke-width='0.222' stroke='currentColor' x='-1' y='-1' width='2' height='2'/>
	<rect id='gpPt4' stroke-width='0.222' stroke='currentColor' fill='currentColor' x='-1' y='-1' width='2' height='2'/>
	<circle id='gpPt5' stroke-width='0.222' stroke='currentColor' cx='0' cy='0' r='1'/>
	<use xlink:href='#gpPt5' id='gpPt6' fill='currentColor' stroke='none'/>
	<path id='gpPt7' stroke-width='0.222' stroke='currentColor' d='M0,-1.33 L-1.33,0.67 L1.33,0.67 z'/>
	<use xlink:href='#gpPt7' id='gpPt8' fill='currentColor' stroke='none'/>
	<use xlink:href='#gpPt7' id='gpPt9' stroke='currentColor' transform='rotate(180)'/>
	<use xlink:href='#gpPt9' id='gpPt10' fill='currentColor' stroke='none'/>
	<use xlink:href='#gpPt3' id='gpPt11' stroke='currentColor' transform='rotate(45)'/>
	<use xlink:href='#gpPt11' id='gpPt12' fill='currentColor' stroke='none'/>
	<path id='gpPt13' stroke-width='0.222' stroke='currentColor' d='M0,1.330 L1.265,0.411 L0.782,-1.067 L-0.782,-1.076 L-1.265,0.411 z'/>
	<use xlink:href='#gpPt13' id='gpPt14' fill='currentColor' stroke='none'/>
	<filter id='textbox' filterUnits='objectBoundingBox' x='0' y='0' height='1' width='1'>
	  <feFlood flood-color='#FFFFFF' flood-opacity='1' result='bgnd'/>
	  <feComposite in='SourceGraphic' in2='bgnd' operator='atop'/>
	</filter>
	<filter id='greybox' filterUnits='objectBoundingBox' x='0' y='0' height='1' width='1'>
	  <feFlood flood-color='lightgrey' flood-opacity='1' result='grey'/>
	  <feComposite in='SourceGraphic' in2='grey' operator='atop'/>
	</filter>
</defs>
<g fill="none" color="#FFFFFF" stroke="black" stroke-width="1.00" stroke-linecap="butt" stroke-linejoin="miter">
</g>
<g fill="none" color="black" stroke="currentColor" stroke-width="1.00" stroke-linecap="butt" stroke-linejoin="miter">
	<path stroke='black'  d='M62.2,399.9 L71.2,399.9 M615.0,399.9 L606.0,399.9  '/>	<g transform="translate(53.9,403.8)" stroke="none" fill="black" font-family="Arial" font-size="12.00"  text-anchor="end">
		<text><tspan font-family="Arial" > 0.05</tspan></text>
	</g>
</g>
<g fill="none" color="black" stroke="currentColor" stroke-width="1.00" stroke-linecap="butt" stroke-linejoin="miter">
	<path stroke='black'  d='M62.2,317.2 L71.2,317.2 M615.0,317.2 L606.0,317.2  '/>	<g transform="translate(53.9,321.1)" stroke="none" fill="black" font-family="Arial" font-size="12.00"  text-anchor="end">
		<text><tspan font-family="Arial" > 0.1</tspan></text>
	</g>
</g>
<g fill="none" color="black" stroke="currentColor" stroke-width="1.00" stroke-linecap="butt" stroke-linejoin="miter">
	<path stroke='black'  d='M62.2,234.4 L71.2,234.4 M615.0,234.4 L606.0,234.4  '/>	<g transform="translate(53.9,238.3)" stroke="none" fill="black" font-family="Arial" font-size="12.00"  text-anchor="end">
		<text><tspan font-family="Arial" > 0.15</tspan></text>
	</g>
</g>
<g fill="none" color="black" stroke="currentColor" stroke-width="1.00" stroke-linecap="butt" stroke-linejoin="miter">
	<path stroke='black'  d='M62.2,151.6 L71.2,151.6 M615.0,151.6 L606.0,151.6  '/>	<g transform="translate(53.9,155.5)" stroke="none" fill="black" font-family="Arial" font-size="12.00"  text-anchor="end">
		<text><tspan font-family="Arial" > 0.2</tspan></text>
	</g>
</g>
<g fill="none" color="black" stroke="currentColor" stroke-width="1.00" stroke-linecap="butt" stroke-linejoin="miter">
	<path stroke='black'  d='M62.2,68.9 L71.2,68.9 M615.0,68.9 L606.0,68.9  '/>	<g transform="translate(53.9,72.8)" stroke="none" fill="black" font-family="Arial" font-size="12.00"  text-anchor="end">
		<text><tspan font-family="Arial" > 0.25</tspan></text>
	</g>
</g>
<g fill="none" color="black" stroke="currentColor" stroke-width="1.00" stroke-linecap="butt" stroke-linejoin="miter">
	<path stroke='black'  d='M62.2,428.0 L62.2,419.0 M62.2,18.1 L62.2,27.1  '/>	<g transform="translate(62.2,449.9)" stroke="none" fill="black" font-family="Arial" font-size="12.00"  text-anchor="middle">
		<text><tspan font-family="Arial" > 0</tspan></text>
	</g>
</g>
<g fill="none" color="black" stroke="currentColor" stroke-width="1.00" stroke-linecap="butt" stroke-linejoin="miter">
	<path stroke='black'  d='M118.0,428.0 L118.0,419.0 M118.0,18.1 L118.0,27.1  '/>	<g transform="translate(118.0,449.9)" stroke="none" fill="black" font-family="Arial" font-size="12.00"  text-anchor="middle">
		<text><tspan font-family="Arial" > 10</tspan></text>
	</g>
</g>
<g fill="none" color="black" stroke="currentColor" stroke-width="1.00" stroke-linecap="butt" stroke-linejoin="miter">
	<path stroke='black'  d='M173.9,428.0 L173.9,419.0 M173.9,18.1 L173.9,27.1  '/>	<g transform="translate(173.9,449.9)" stroke="none" fill="black" font-family="Arial" font-size="12.00"  text-anchor="middle">
		<text><tspan font-family="Arial" > 20</tspan></text>
	</g>
</g>
<g fill="none" color="black" stroke="currentColor" stroke-width="1.00" stroke-linecap="butt" stroke-linejoin="miter">
	<path stroke='black'  d='M229.7,428.0 L229.7,419.0 M229.7,18.1 L229.7,27.1  '/>	<g transform="translate(229.7,449.9)" stroke="none" fill="black" font-family="Arial" font-size="12.00"  text-anchor="middle">
		<text><tspan font-family="Arial" > 30</tspan></text>
	</g>
</g>
<g fill="none" color="black" stroke="currentColor" stroke-width="1.00" stroke-linecap="butt" stroke-linejoin="miter">
	<path stroke='black'  d='M285.6,428.0 L285.6,419.0 M285.6,18.1 L285.6,27.1  '/>	<g transform="translate(285.6,449.9)" stroke="none" fill="black" font-family="Arial" font-size="12.00"  text-anchor="middle">
		<text><tspan font-family="Arial" > 40</tspan></text>
	</g>
</g>
<g fill="none" color="black" stroke="currentColor" stroke-width="1.00" stroke-linecap="butt" stroke-linejoin="miter">
	<path stroke='black'  d='M341.4,428.0 L341.4,419.0 M341.4,18.1 L341.4,27.1  '/>	<g transform="translate(341.4,449.9)" stroke="none" fill="black" font-family="Arial" font-size="12.00"  text-anchor="middle">
		<text><tspan font-family="Arial" > 50</tspan></text>
	</g>
</g>
<g fill="none" color="black" stroke="currentColor" stroke-width="1.00" stroke-linecap="butt" stroke-linejoin="miter">
	<path stroke='black'  d='M397.2,428.0 L397.2,419.0 M397.2,18.1 L397.2,27.1  '/>	<g transform="translate(397.2,449.9)" stroke="none" fill="black" font-family="Arial" font-size="12.00"  text-anchor="middle">
		<text><tspan font-family="Arial" > 60</tspan></text>
	</g>
</g>
<g fill="none" color="black" stroke="currentColor" stroke-width="1.00" stroke-linecap="butt" stroke-linejoin="miter">
	<path stroke='black'  d='M453.1,428.0 L453.1,419.0 M453.1,18.1 L453.1,27.1  '/>	<g transform="translate(453.1,449.9)" stroke="none" fill="black" font-family="Arial" font-size="12.00"  text-anchor="middle">
		<text><tspan font-family="Arial" > 70</tspan></text>
	</g>
</g>
<g fill="none" color="black" stroke="currentColor" stroke-width="1.00" stroke-linecap="butt" stroke-linejoin="miter">
	<path stroke='black'  d='M508.9,428.0 L508.9,419.0 M508.9,18.1 L508.9,27.1  '/>	<g transform="translate(508.9,449.9)" stroke="none" fill="black" font-family="Arial" font-size="12.00"  text-anchor="middle">
		<text><tspan font-family="Arial" > 80</tspan></text>
	</g>
</g>
<g fill="none" color="black" stroke="currentColor" stroke-width="1.00" stroke-linecap="butt" stroke-linejoin="miter">
	<path stroke='black'  d='M564.7,428.0 L564.7,419.0 M564.7,18.1 L564.7,27.1  '/>	<g transform="translate(564.7,449.9)" stroke="none" fill="black" font-family="Arial" font-size="12.00"  text-anchor="middle">
		<text><tspan font-family="Arial" > 90</tspan></text>
	</g>
</g>
<g fill="none" color="black" stroke="currentColor" stroke-width="1.00" stroke-linecap="butt" stroke-linejoin="miter">
</g>
<g fill="none" color="black" stroke="currentColor" stroke-width="1.00" stroke-linecap="butt" stroke-linejoin="miter">
	<path stroke='black'  d='M62.2,18.1 L62.2,428.0 L615.0,428.0 L615.0,18.1 L62.2,18.1 Z  '/></g>
<g fill="none" color="black" stroke="currentColor" stroke-width="1.00" stroke-linecap="butt" stroke-linejoin="miter">
</g>
	<g id="gnuplot_plot_1" ><title>pages+cached+noexternal+nofonts</title>
<g fill="none" color="black" stroke="currentColor" stroke-width="1.00" stroke-linecap="butt" stroke-linejoin="miter">
	<g transform="translate(437.8,467.9)" stroke="none" fill="black" font-family="Arial" font-size="12.00"  text-anchor="end">
		<text><tspan font-family="Arial" >pages+cached+noexternal+nofonts</tspan></text>
	</g>
</g>
<g fill="none" color="black" stroke="currentColor" stroke-width="1.00" stroke-linecap="butt" stroke-linejoin="miter">
	<path stroke='rgb(148,   0, 211)'  d='M446.1,464.0 L488.3,464.0 M62.2,405.7 L67.8,404.9 L73.4,402.9 L79.0,402.1 L84.5,400.4 L90.1,399.9
		L95.7,398.6 L101.3,398.4 L106.9,398.3 L112.5,398.1 L118.0,397.3 L123.6,396.9 L129.2,396.1 L134.8,395.9
		L140.4,395.6 L146.0,395.5 L151.5,393.5 L157.1,393.0 L162.7,392.0 L168.3,391.8 L173.9,391.8 L179.5,391.6
		L185.0,391.5 L190.6,391.3 L196.2,389.5 L201.8,388.7 L207.4,388.7 L213.0,387.8 L218.5,386.3 L224.1,386.3
		L229.7,383.4 L235.3,381.9 L240.9,381.1 L246.5,381.1 L252.1,380.9 L257.6,380.7 L263.2,380.7 L268.8,379.4
		L274.4,378.9 L280.0,378.4 L285.6,377.7 L291.1,377.2 L296.7,377.1 L302.3,376.9 L307.9,376.6 L313.5,376.3
		L319.1,375.6 L324.6,374.6 L330.2,374.6 L335.8,374.1 L341.4,373.6 L347.0,373.3 L352.6,373.1 L358.1,373.1
		L363.7,372.8 L369.3,372.6 L374.9,372.3 L380.5,372.1 L386.1,371.9 L391.6,371.8 L397.2,371.6 L402.8,371.6
		L408.4,371.0 L414.0,371.0 L419.6,370.8 L425.1,370.1 L430.7,369.3 L436.3,369.3 L441.9,369.1 L447.5,368.0
		L453.1,367.6 L458.7,367.5 L464.2,367.5 L469.8,367.3 L475.4,366.0 L481.0,366.0 L486.6,365.7 L492.2,365.5
		L497.7,365.3 L503.3,364.7 L508.9,362.2 L514.5,362.0 L520.1,361.4 L525.7,361.4 L531.2,359.2 L536.8,358.9
		L542.4,355.6 L548.0,355.6 L553.6,353.7 L559.2,352.7 L564.7,351.4 L570.3,350.8 L575.9,348.4 L581.5,348.3
		L587.1,347.0 L592.7,343.3 L598.2,342.2 L603.8,340.0 L609.4,316.7 L615.0,294.0  '/></g>
	</g>
	<g id="gnuplot_plot_2" ><title>pages+cached+noexternal+nosvg</title>
<g fill="none" color="black" stroke="currentColor" stroke-width="1.00" stroke-linecap="butt" stroke-linejoin="miter">
	<g transform="translate(437.8,485.9)" stroke="none" fill="black" font-family="Arial" font-size="12.00"  text-anchor="end">
		<text><tspan font-family="Arial" >pages+cached+noexternal+nosvg</tspan></text>
	</g>
</g>
<g fill="none" color="black" stroke="currentColor" stroke-width="1.00" stroke-linecap="butt" stroke-linejoin="miter">
	<path stroke='rgb(  0, 158, 115)'  d='M446.1,482.0 L488.3,482.0 M62.2,420.1 L67.8,415.8 L73.4,401.9 L79.0,400.1 L84.5,398.1 L90.1,395.9
		L95.7,395.3 L101.3,393.5 L106.9,392.5 L112.5,392.0 L118.0,389.8 L123.6,388.7 L129.2,387.0 L134.8,386.7
		L140.4,386.5 L146.0,385.4 L151.5,383.5 L157.1,382.2 L162.7,381.7 L168.3,381.1 L173.9,380.6 L179.5,380.4
		L185.0,380.2 L190.6,379.6 L196.2,379.2 L201.8,378.7 L207.4,378.4 L213.0,378.2 L218.5,378.1 L224.1,377.9
		L229.7,377.9 L235.3,377.6 L240.9,377.4 L246.5,376.3 L252.1,376.3 L257.6,375.9 L263.2,375.9 L268.8,375.6
		L274.4,374.8 L280.0,373.9 L285.6,373.4 L291.1,371.5 L296.7,371.5 L302.3,371.1 L307.9,371.0 L313.5,370.3
		L319.1,370.3 L324.6,370.1 L330.2,369.0 L335.8,369.0 L341.4,368.5 L347.0,368.1 L352.6,368.1 L358.1,368.0
		L363.7,367.0 L369.3,366.7 L374.9,366.7 L380.5,365.7 L386.1,364.8 L391.6,364.0 L397.2,364.0 L402.8,363.5
		L408.4,363.3 L414.0,363.0 L419.6,362.8 L425.1,362.8 L430.7,362.8 L436.3,360.9 L441.9,360.0 L447.5,359.0
		L453.1,356.1 L458.7,354.7 L464.2,353.9 L469.8,352.7 L475.4,352.2 L481.0,350.9 L486.6,347.9 L492.2,347.4
		L497.7,344.6 L503.3,342.8 L508.9,342.2 L514.5,342.0 L520.1,341.0 L525.7,339.8 L531.2,337.4 L536.8,335.7
		L542.4,332.4 L548.0,331.9 L553.6,326.4 L559.2,321.1 L564.7,300.6 L570.3,299.8 L575.9,295.1 L581.5,241.8
		L587.1,206.6 L592.7,108.3 L598.2,71.5 L603.8,62.6 L609.4,62.6 L615.0,26.0  '/></g>
	</g>
<g fill="none" color="#FFFFFF" stroke="rgb(  0, 158, 115)" stroke-width="2.00" stroke-linecap="butt" stroke-linejoin="miter">
</g>
<g fill="none" color="black" stroke="currentColor" stroke-width="2.00" stroke-linecap="butt" stroke-linejoin="miter">
</g>
<g fill="none" color="black" stroke="black" stroke-width="1.00" stroke-linecap="butt" stroke-linejoin="miter">
</g>
<g fill="none" color="black" stroke="currentColor" stroke-width="1.00" stroke-linecap="butt" stroke-linejoin="miter">
	<path stroke='black'  d='M62.2,18.1 L62.2,428.0 L615.0,428.0 L615.0,18.1 L62.2,18.1 Z  '/></g>
<g fill="none" color="black" stroke="currentColor" stroke-width="1.00" stroke-linecap="butt" stroke-linejoin="miter">
</g>
</g>
</svg>
